dist/img/phone.svg

<svg width="22" height="21" viewBox="0 0 22 21" fill="none" xmlns="http://www.w3.org/2000/svg">
<path d="M18 9.62412H19.75C19.75 5.13537 16.3611 1.75 11.8663 1.75V3.5C15.4205 3.5 18 6.07512 18 9.62412Z" fill="white"/>
<path d="M11.875 6.99996C13.7151 6.99996 14.5 7.78484 14.5 9.62496H16.25C16.25 6.80309 14.6969 5.24996 11.875 5.24996V6.99996ZM14.8693 11.7626C14.7011 11.6098 14.4802 11.5283 14.2531 11.5353C14.026 11.5423 13.8105 11.6373 13.6521 11.8002L11.5583 13.9536C11.0543 13.8573 10.041 13.5415 8.998 12.5011C7.955 11.4572 7.63913 10.4413 7.5455 9.94084L9.69713 7.84609C9.86024 7.68783 9.95537 7.47231 9.96239 7.24515C9.96942 7.01798 9.88778 6.797 9.73475 6.62897L6.50163 3.07384C6.34854 2.90528 6.13577 2.80303 5.90851 2.78882C5.68125 2.7746 5.4574 2.84954 5.2845 2.99772L3.38575 4.62609C3.23447 4.77792 3.14418 4.97998 3.132 5.19396C3.11888 5.41271 2.86863 10.5945 6.88663 14.6142C10.3919 18.1186 14.7826 18.375 15.9919 18.375C16.1686 18.375 16.2771 18.3697 16.306 18.368C16.52 18.356 16.7219 18.2653 16.873 18.1133L18.5005 16.2137C18.6488 16.0409 18.7239 15.8171 18.7098 15.5899C18.6958 15.3626 18.5937 15.1498 18.4253 14.9966L14.8693 11.7626Z" fill="white"/>
</svg>

<svg width="22" height="21" fill="none" xmlns="http://www.w3.org/2000/svg"><path d="M18 9.624h1.75c0-4.489-3.389-7.874-7.884-7.874V3.5C15.421 3.5 18 6.075 18 9.624z" fill="#fff"/><path d="M11.875 7c1.84 0 2.625.785 2.625 2.625h1.75c0-2.822-1.553-4.375-4.375-4.375V7zm2.994 4.763a.876.876 0 00-1.217.037l-2.094 2.154c-.504-.097-1.517-.413-2.56-1.453-1.043-1.044-1.359-2.06-1.452-2.56l2.151-2.095a.875.875 0 00.038-1.217L6.502 3.074a.875.875 0 00-1.217-.076l-1.9 1.628a.875.875 0 00-.253.568c-.013.219-.263 5.4 3.755 9.42 3.505 3.505 7.896 3.761 9.105 3.761.177 0 .285-.005.314-.007a.868.868 0 00.567-.255l1.627-1.9a.875.875 0 00-.075-1.216l-3.556-3.234z" fill="#fff"/></svg>
